latex_in_markdown/.watch-latex-md-images/d525374cbb7128e4d1518f8da7baccf0.svg

<ns0:svg xmlns:ns0="http://www.w3.org/2000/svg" xmlns:ns1="http://www.w3.org/1999/xlink" height="17.897pt" version="1.1" viewBox="23.686 60.1703 68.6816 17.897" width="68.6816pt" watch_lated_md:baseline="3.3474999999999895" xmlns:watch_lated_md="https://github.com/Quansight/pearu-sandbox/latex_in_markdown/">
<ns0:defs>
<ns0:path d="m2.03238 -1.32702c-0.418431 0.705355 -0.824907 0.944458 -1.39875 0.980324c-0.131507 0.0119552 -0.227148 0.0119552 -0.227148 0.227148c0 0.071731 0.0597758 0.119552 0.143462 0.119552c0.215193 0 0.753176 -0.0239103 0.968369 -0.0239103c0.3467 0 0.729265 0.0239103 1.06401 0.0239103c0.071731 0 0.215193 0 0.215193 -0.227148c0 -0.107597 -0.0956413 -0.119552 -0.167372 -0.119552c-0.274969 -0.0239103 -0.502117 -0.119552 -0.502117 -0.406476c0 -0.167372 0.071731 -0.298879 0.227148 -0.561893l0.908593 -1.50635h3.04857c0.0119552 0.107597 0.0119552 0.203238 0.0239103 0.310834c0.0358655 0.310834 0.179328 1.55417 0.179328 1.78132c0 0.358655 -0.609714 0.382565 -0.800996 0.382565c-0.131507 0 -0.263014 0 -0.263014 0.215193c0 0.131507 0.107597 0.131507 0.179328 0.131507c0.203238 0 0.442341 -0.0239103 0.645579 -0.0239103h0.681445c0.729265 0 1.25529 0.0239103 1.26725 0.0239103c0.0836862 0 0.215193 0 0.215193 -0.227148c0 -0.119552 -0.107597 -0.119552 -0.286924 -0.119552c-0.657534 0 -0.669489 -0.107597 -0.705355 -0.466252l-0.729265 -7.46002c-0.0239103 -0.239103 -0.071731 -0.263014 -0.203238 -0.263014c-0.119552 0 -0.191283 0.0239103 -0.298879 0.203238l-4.18431 7.00573zm1.43462 -1.8411l2.40299 -4.01694l0.406476 4.01694h-2.80946z" id="g0-65" />
<ns0:path d="m2.13998 -2.7736c0.32279 0 1.13574 -0.0239103 1.70959 -0.239103c0.908593 -0.3467 0.992279 -1.0401 0.992279 -1.25529c0 -0.526027 -0.454296 -1.00423 -1.24334 -1.00423c-1.25529 0 -3.06052 1.13574 -3.06052 3.26376c0 1.25529 0.71731 2.12802 1.80523 2.12802c1.6259 0 2.65405 -1.26725 2.65405 -1.42267c0 -0.071731 -0.071731 -0.131507 -0.119552 -0.131507c-0.0358655 0 -0.0478207 0.0119552 -0.155417 0.119552c-0.765131 1.01619 -1.90087 1.19552 -2.35517 1.19552c-0.681445 0 -1.0401 -0.537983 -1.0401 -1.42267c0 -0.167372 0 -0.466252 0.179328 -1.23138h0.633624zm-0.573848 -0.239103c0.514072 -1.8411 1.64981 -2.02042 2.03238 -2.02042c0.526027 0 0.884682 0.310834 0.884682 0.765131c0 1.25529 -1.91283 1.25529 -2.41494 1.25529h-0.502117z" id="g0-101" />
<ns0:path d="m3.3594 -7.99801c0.0119552 -0.0478207 0.0358655 -0.119552 0.0358655 -0.179328c0 -0.119552 -0.119552 -0.119552 -0.143462 -0.119552c-0.0119552 0 -0.442341 0.0358655 -0.657534 0.0597758c-0.203238 0.0119552 -0.382565 0.0358655 -0.597758 0.0478207c-0.286924 0.0239103 -0.37061 0.0358655 -0.37061 0.251059c0 0.119552 0.119552 0.119552 0.239103 0.119552c0.609714 0 0.609714 0.107597 0.609714 0.227148c0 0.0478207 0 0.071731 -0.0597758 0.286924l-1.70959 6.83836c-0.0478207 0.179328 -0.0478207 0.203238 -0.0478207 0.274969c0 0.263014 0.203238 0.310834 0.32279 0.310834c0.334745 0 0.406476 -0.263014 0.502117 -0.633624l0.561893 -2.23562c0.860772 0.0956413 1.37484 0.454296 1.37484 1.02814c0 0.071731 0 0.119552 -0.0358655 0.298879c-0.0478207 0.179328 -0.0478207 0.32279 -0.0478207 0.382565c0 0.6934 0.454296 1.15965 1.06401 1.15965c0.549938 0 0.836862 -0.502117 0.932503 -0.669489c0.251059 -0.442341 0.406476 -1.11183 0.406476 -1.15965c0 -0.0597758 -0.0478207 -0.107597 -0.119552 -0.107597c-0.107597 0 -0.119552 0.0478207 -0.167372 0.239103c-0.167372 0.621669 -0.418431 1.45853 -1.02814 1.45853c-0.239103 0 -0.394521 -0.119552 -0.394521 -0.573848c0 -0.227148 0.0478207 -0.490162 0.0956413 -0.669489c0.0478207 -0.215193 0.0478207 -0.227148 0.0478207 -0.37061c0 -0.705355 -0.633624 -1.09988 -1.7335 -1.24334c0.430386 -0.263014 0.860772 -0.729265 1.02814 -0.908593c0.681445 -0.765131 1.1477 -1.1477 1.69763 -1.1477c0.274969 0 0.3467 0.071731 0.430386 0.143462c-0.442341 0.0478207 -0.609714 0.358655 -0.609714 0.597758c0 0.286924 0.227148 0.382565 0.394521 0.382565c0.32279 0 0.609714 -0.274969 0.609714 -0.657534c0 -0.3467 -0.274969 -0.705355 -0.812951 -0.705355c-0.657534 0 -1.19552 0.466252 -2.04433 1.42267c-0.119552 0.143462 -0.561893 0.597758 -1.00423 0.765131l1.23138 -4.91357z" id="g0-107" />
<ns0:path d="m5.66675 -4.87771c-0.382565 0.071731 -0.526027 0.358655 -0.526027 0.585803c0 0.286924 0.227148 0.382565 0.394521 0.382565c0.358655 0 0.609714 -0.310834 0.609714 -0.633624c0 -0.502117 -0.573848 -0.729265 -1.07597 -0.729265c-0.729265 0 -1.13574 0.71731 -1.24334 0.944458c-0.274969 -0.896638 -1.01619 -0.944458 -1.23138 -0.944458c-1.21943 0 -1.86501 1.56613 -1.86501 1.82914c0 0.0478207 0.0478207 0.107597 0.131507 0.107597c0.0956413 0 0.119552 -0.071731 0.143462 -0.119552c0.406476 -1.32702 1.20747 -1.57808 1.55417 -1.57808c0.537983 0 0.645579 0.502117 0.645579 0.789041c0 0.263014 -0.071731 0.537983 -0.215193 1.11183l-0.406476 1.63786c-0.179328 0.71731 -0.526027 1.37484 -1.15965 1.37484c-0.0597758 0 -0.358655 0 -0.609714 -0.155417c0.430386 -0.0836862 0.526027 -0.442341 0.526027 -0.585803c0 -0.239103 -0.179328 -0.382565 -0.406476 -0.382565c-0.286924 0 -0.597758 0.251059 -0.597758 0.633624c0 0.502117 0.561893 0.729265 1.07597 0.729265c0.573848 0 0.980324 -0.454296 1.23138 -0.944458c0.191283 0.705355 0.789041 0.944458 1.23138 0.944458c1.21943 0 1.86501 -1.56613 1.86501 -1.82914c0 -0.0597758 -0.0478207 -0.107597 -0.119552 -0.107597c-0.107597 0 -0.119552 0.0597758 -0.155417 0.155417c-0.32279 1.05205 -1.01619 1.54222 -1.55417 1.54222c-0.418431 0 -0.645579 -0.310834 -0.645579 -0.800996c0 -0.263014 0.0478207 -0.454296 0.239103 -1.24334l0.418431 -1.6259c0.179328 -0.71731 0.585803 -1.24334 1.13574 -1.24334c0.0239103 0 0.358655 0 0.609714 0.155417z" id="g0-120" />
<ns0:path d="m3.14421 1.33898c-0.32279 0.454296 -0.789041 0.860772 -1.37484 0.860772c-0.143462 0 -0.71731 -0.0239103 -0.896638 -0.573848c0.0358655 0.0119552 0.0956413 0.0119552 0.119552 0.0119552c0.358655 0 0.597758 -0.310834 0.597758 -0.585803s-0.227148 -0.37061 -0.406476 -0.37061c-0.191283 0 -0.609714 0.143462 -0.609714 0.729265c0 0.609714 0.514072 1.02814 1.19552 1.02814c1.19552 0 2.40299 -1.09988 2.73773 -2.4269l1.17161 -4.66252c0.0119552 -0.0597758 0.0358655 -0.131507 0.0358655 -0.203238c0 -0.179328 -0.143462 -0.298879 -0.32279 -0.298879c-0.107597 0 -0.358655 0.0478207 -0.454296 0.406476l-0.884682 3.51482c-0.0597758 0.215193 -0.0597758 0.239103 -0.155417 0.37061c-0.239103 0.334745 -0.633624 0.74122 -1.20747 0.74122c-0.669489 0 -0.729265 -0.657534 -0.729265 -0.980324c0 -0.681445 0.32279 -1.60199 0.645579 -2.46276c0.131507 -0.3467 0.203238 -0.514072 0.203238 -0.753176c0 -0.502117 -0.358655 -0.956413 -0.944458 -0.956413c-1.09988 0 -1.54222 1.7335 -1.54222 1.82914c0 0.0478207 0.0478207 0.107597 0.131507 0.107597c0.107597 0 0.119552 -0.0478207 0.167372 -0.215193c0.286924 -1.00423 0.74122 -1.48244 1.20747 -1.48244c0.107597 0 0.310834 0 0.310834 0.394521c0 0.310834 -0.131507 0.657534 -0.310834 1.11183c-0.585803 1.56613 -0.585803 1.96065 -0.585803 2.24757c0 1.13574 0.812951 1.39875 1.41071 1.39875c0.3467 0 0.777086 -0.107597 1.19552 -0.549938l0.0119552 0.0119552c-0.179328 0.705355 -0.298879 1.17161 -0.71731 1.75741z" id="g0-121" />
<ns0:use id="g1-65" transform="scale(1.44)" ns1:href="#g0-65" />
<ns0:use id="g1-101" transform="scale(1.44)" ns1:href="#g0-101" />
<ns0:use id="g1-121" transform="scale(1.44)" ns1:href="#g0-121" />
<ns0:path d="m2.85776 -0.705833c0 -0.430386 -0.344309 -0.705833 -0.705833 -0.705833c-0.344309 0 -0.705833 0.275447 -0.705833 0.705833s0.344309 0.705833 0.705833 0.705833c0.344309 0 0.705833 -0.275447 0.705833 -0.705833z" id="g2-46" />
<ns0:path d="m11.0695 -5.52616c0.258232 0 0.516463 0 0.516463 -0.292662c0 -0.309878 -0.292662 -0.309878 -0.585325 -0.309878h-9.62343c-0.292662 0 -0.585325 0 -0.585325 0.309878c0 0.292662 0.258232 0.292662 0.516463 0.292662h9.76115zm-0.0688618 3.06435c0.292662 0 0.585325 0 0.585325 -0.309878c0 -0.292662 -0.258232 -0.292662 -0.516463 -0.292662h-9.76115c-0.258232 0 -0.516463 0 -0.516463 0.292662c0 0.309878 0.292662 0.309878 0.585325 0.309878h9.62343z" id="g2-61" />
</ns0:defs>
<ns0:g id="page1">
<ns0:use x="27.9837" ns1:href="#g1-121" y="74.7198" />
<ns0:use x="41.6025" ns1:href="#g2-61" y="74.7198" />
<ns0:use x="58.7768" ns1:href="#g1-65" y="74.7198" />
<ns0:use x="71.4133" ns1:href="#g1-101" y="74.7198" />
<ns0:use x="79.2259" ns1:href="#g0-107" y="68.4725" />
<ns0:use x="85.7154" ns1:href="#g0-120" y="68.4725" />
</ns0:g>
</ns0:svg>

<ns0:svg xmlns:ns0="http://www.w3.org/2000/svg" xmlns:ns1="http://www.w3.org/1999/xlink" height="17.897pt" version="1.1" viewBox="23.686 60.1703 68.6816 17.897" width="68.6816pt" watch_lated_md:baseline="3.3474999999999895" xmlns:watch_lated_md="https://github.com/Quansight/pearu-sandbox/latex_in_markdown/">
<ns0:defs>
<ns0:path d="M2.03238 -1.32702C1.61395 -0.621669 1.20747 -0.382565 0.633624 -0.3467C0.502117 -0.334745 0.406476 -0.334745 0.406476 -0.119552C0.406476 -0.0478207 0.466252 0 0.549938 0C0.765131 0 1.30311 -0.0239103 1.51831 -0.0239103C1.86501 -0.0239103 2.24757 0 2.58232 0C2.65405 0 2.79751 0 2.79751 -0.227148C2.79751 -0.334745 2.70187 -0.3467 2.63014 -0.3467C2.35517 -0.37061 2.12802 -0.466252 2.12802 -0.753176C2.12802 -0.920548 2.19975 -1.05205 2.35517 -1.31507L3.26376 -2.82142H6.31233C6.32428 -2.71382 6.32428 -2.61818 6.33624 -2.51059C6.3721 -2.19975 6.51557 -0.956413 6.51557 -0.729265C6.51557 -0.37061 5.90585 -0.3467 5.71457 -0.3467C5.58306 -0.3467 5.45156 -0.3467 5.45156 -0.131507C5.45156 0 5.55915 0 5.63088 0C5.83412 0 6.07323 -0.0239103 6.27646 -0.0239103H6.95791C7.68717 -0.0239103 8.2132 0 8.22516 0C8.30884 0 8.44035 0 8.44035 -0.227148C8.44035 -0.3467 8.33275 -0.3467 8.15342 -0.3467C7.49589 -0.3467 7.48394 -0.454296 7.44807 -0.812951L6.7188 -8.27298C6.69489 -8.51208 6.64707 -8.53599 6.51557 -8.53599C6.39601 -8.53599 6.32428 -8.51208 6.21669 -8.33275L2.03238 -1.32702ZM3.467 -3.16812L5.86999 -7.18506L6.27646 -3.16812H3.467Z" id="g0-65" />
<ns0:path d="M2.13998 -2.7736C2.46276 -2.7736 3.27572 -2.79751 3.84956 -3.0127C4.75816 -3.3594 4.84184 -4.0528 4.84184 -4.268C4.84184 -4.79402 4.38755 -5.27223 3.59851 -5.27223C2.34321 -5.27223 0.537983 -4.13649 0.537983 -2.00847C0.537983 -0.753176 1.25529 0.119552 2.34321 0.119552C3.96912 0.119552 4.99726 -1.1477 4.99726 -1.30311C4.99726 -1.37484 4.92553 -1.43462 4.87771 -1.43462C4.84184 -1.43462 4.82989 -1.42267 4.72229 -1.31507C3.95716 -0.298879 2.82142 -0.119552 2.36712 -0.119552C1.68568 -0.119552 1.32702 -0.657534 1.32702 -1.54222C1.32702 -1.70959 1.32702 -2.00847 1.50635 -2.7736H2.13998ZM1.56613 -3.0127C2.0802 -4.8538 3.21594 -5.03313 3.59851 -5.03313C4.12453 -5.03313 4.48319 -4.72229 4.48319 -4.268C4.48319 -3.0127 2.57036 -3.0127 2.06824 -3.0127H1.56613Z" id="g0-101" />
<ns0:path d="M3.3594 -7.99801C3.37136 -8.04583 3.39527 -8.11756 3.39527 -8.17733C3.39527 -8.29689 3.27572 -8.29689 3.25181 -8.29689C3.23985 -8.29689 2.80946 -8.26102 2.59427 -8.23711C2.39103 -8.22516 2.21171 -8.20125 1.99651 -8.18929C1.70959 -8.16538 1.6259 -8.15342 1.6259 -7.93823C1.6259 -7.81868 1.74545 -7.81868 1.86501 -7.81868C2.47472 -7.81868 2.47472 -7.71108 2.47472 -7.59153C2.47472 -7.54371 2.47472 -7.5198 2.41494 -7.30461L0.705355 -0.466252C0.657534 -0.286924 0.657534 -0.263014 0.657534 -0.191283C0.657534 0.071731 0.860772 0.119552 0.980324 0.119552C1.31507 0.119552 1.3868 -0.143462 1.48244 -0.514072L2.04433 -2.74969C2.90511 -2.65405 3.41918 -2.29539 3.41918 -1.72154C3.41918 -1.64981 3.41918 -1.60199 3.38331 -1.42267C3.33549 -1.24334 3.33549 -1.09988 3.33549 -1.0401C3.33549 -0.3467 3.78979 0.119552 4.3995 0.119552C4.94944 0.119552 5.23636 -0.382565 5.332 -0.549938C5.58306 -0.992279 5.73848 -1.66177 5.73848 -1.70959C5.73848 -1.76936 5.69066 -1.81719 5.61893 -1.81719C5.51133 -1.81719 5.49938 -1.76936 5.45156 -1.57808C5.28418 -0.956413 5.03313 -0.119552 4.42341 -0.119552C4.18431 -0.119552 4.02889 -0.239103 4.02889 -0.6934C4.02889 -0.920548 4.07671 -1.18356 4.12453 -1.36289C4.17235 -1.57808 4.17235 -1.59004 4.17235 -1.7335C4.17235 -2.43885 3.53873 -2.83337 2.43885 -2.97684C2.86924 -3.23985 3.29963 -3.7061 3.467 -3.88543C4.14844 -4.65056 4.61469 -5.03313 5.16463 -5.03313C5.4396 -5.03313 5.51133 -4.96139 5.59502 -4.88966C5.15268 -4.84184 4.98531 -4.53101 4.98531 -4.29191C4.98531 -4.00498 5.21245 -3.90934 5.37983 -3.90934C5.70262 -3.90934 5.98954 -4.18431 5.98954 -4.56687C5.98954 -4.91357 5.71457 -5.27223 5.17659 -5.27223C4.51905 -5.27223 3.98107 -4.80598 3.13225 -3.84956C3.0127 -3.7061 2.57036 -3.25181 2.12802 -3.08443L3.3594 -7.99801Z" id="g0-107" />
<ns0:path d="M5.66675 -4.87771C5.28418 -4.80598 5.14072 -4.51905 5.14072 -4.29191C5.14072 -4.00498 5.36787 -3.90934 5.53524 -3.90934C5.8939 -3.90934 6.14496 -4.22017 6.14496 -4.54296C6.14496 -5.04508 5.57111 -5.27223 5.06899 -5.27223C4.33973 -5.27223 3.93325 -4.55492 3.82565 -4.32777C3.55068 -5.22441 2.80946 -5.27223 2.59427 -5.27223C1.37484 -5.27223 0.729265 -3.7061 0.729265 -3.44309C0.729265 -3.39527 0.777086 -3.33549 0.860772 -3.33549C0.956413 -3.33549 0.980324 -3.40722 1.00423 -3.45504C1.41071 -4.78207 2.21171 -5.03313 2.55841 -5.03313C3.09639 -5.03313 3.20399 -4.53101 3.20399 -4.24408C3.20399 -3.98107 3.13225 -3.7061 2.98879 -3.13225L2.58232 -1.4944C2.40299 -0.777086 2.05629 -0.119552 1.42267 -0.119552C1.36289 -0.119552 1.06401 -0.119552 0.812951 -0.274969C1.24334 -0.358655 1.33898 -0.71731 1.33898 -0.860772C1.33898 -1.09988 1.15965 -1.24334 0.932503 -1.24334C0.645579 -1.24334 0.334745 -0.992279 0.334745 -0.609714C0.334745 -0.107597 0.896638 0.119552 1.41071 0.119552C1.98456 0.119552 2.39103 -0.334745 2.64209 -0.824907C2.83337 -0.119552 3.43113 0.119552 3.87347 0.119552C5.0929 0.119552 5.73848 -1.44658 5.73848 -1.70959C5.73848 -1.76936 5.69066 -1.81719 5.61893 -1.81719C5.51133 -1.81719 5.49938 -1.75741 5.46351 -1.66177C5.14072 -0.609714 4.44732 -0.119552 3.90934 -0.119552C3.49091 -0.119552 3.26376 -0.430386 3.26376 -0.920548C3.26376 -1.18356 3.31158 -1.37484 3.50286 -2.16389L3.9213 -3.78979C4.10062 -4.5071 4.5071 -5.03313 5.05704 -5.03313C5.08095 -5.03313 5.41569 -5.03313 5.66675 -4.87771Z" id="g0-120" />
<ns0:path d="M3.14421 1.33898C2.82142 1.79328 2.35517 2.19975 1.76936 2.19975C1.6259 2.19975 1.05205 2.17584 0.872727 1.6259C0.908593 1.63786 0.968369 1.63786 0.992279 1.63786C1.35093 1.63786 1.59004 1.32702 1.59004 1.05205S1.36289 0.681445 1.18356 0.681445C0.992279 0.681445 0.573848 0.824907 0.573848 1.41071C0.573848 2.02042 1.08792 2.43885 1.76936 2.43885C2.96488 2.43885 4.17235 1.33898 4.5071 0.0119552L5.6787 -4.65056C5.69066 -4.71034 5.71457 -4.78207 5.71457 -4.8538C5.71457 -5.03313 5.57111 -5.15268 5.39178 -5.15268C5.28418 -5.15268 5.03313 -5.10486 4.93748 -4.7462L4.0528 -1.23138C3.99303 -1.01619 3.99303 -0.992279 3.89738 -0.860772C3.65828 -0.526027 3.26376 -0.119552 2.68991 -0.119552C2.02042 -0.119552 1.96065 -0.777086 1.96065 -1.09988C1.96065 -1.78132 2.28344 -2.70187 2.60623 -3.56264C2.73773 -3.90934 2.80946 -4.07671 2.80946 -4.31582C2.80946 -4.81793 2.45081 -5.27223 1.86501 -5.27223C0.765131 -5.27223 0.32279 -3.53873 0.32279 -3.44309C0.32279 -3.39527 0.37061 -3.33549 0.454296 -3.33549C0.561893 -3.33549 0.573848 -3.38331 0.621669 -3.55068C0.908593 -4.55492 1.36289 -5.03313 1.82914 -5.03313C1.93674 -5.03313 2.13998 -5.03313 2.13998 -4.63861C2.13998 -4.32777 2.00847 -3.98107 1.82914 -3.52677C1.24334 -1.96065 1.24334 -1.56613 1.24334 -1.2792C1.24334 -0.143462 2.05629 0.119552 2.65405 0.119552C3.00075 0.119552 3.43113 0.0119552 3.84956 -0.430386L3.86152 -0.418431C3.68219 0.286924 3.56264 0.753176 3.14421 1.33898Z" id="g0-121" />
<ns0:use id="g1-65" transform="scale(1.44)" ns1:href="#g0-65" />
<ns0:use id="g1-101" transform="scale(1.44)" ns1:href="#g0-101" />
<ns0:use id="g1-121" transform="scale(1.44)" ns1:href="#g0-121" />
<ns0:path d="M2.85776 -0.705833C2.85776 -1.13622 2.51345 -1.41167 2.15193 -1.41167C1.80762 -1.41167 1.4461 -1.13622 1.4461 -0.705833S1.79041 0 2.15193 0C2.49624 0 2.85776 -0.275447 2.85776 -0.705833Z" id="g2-46" />
<ns0:path d="M11.0695 -5.52616C11.3278 -5.52616 11.586 -5.52616 11.586 -5.81882C11.586 -6.1287 11.2933 -6.1287 11.0007 -6.1287H1.37724C1.08457 -6.1287 0.79191 -6.1287 0.79191 -5.81882C0.79191 -5.52616 1.05014 -5.52616 1.30837 -5.52616H11.0695ZM11.0007 -2.46181C11.2933 -2.46181 11.586 -2.46181 11.586 -2.77169C11.586 -3.06435 11.3278 -3.06435 11.0695 -3.06435H1.30837C1.05014 -3.06435 0.79191 -3.06435 0.79191 -2.77169C0.79191 -2.46181 1.08457 -2.46181 1.37724 -2.46181H11.0007Z" id="g2-61" />
</ns0:defs>
<ns0:g id="page1">
<ns0:use x="27.9837" ns1:href="#g1-121" y="74.7198" />
<ns0:use x="41.6025" ns1:href="#g2-61" y="74.7198" />
<ns0:use x="58.7768" ns1:href="#g1-65" y="74.7198" />
<ns0:use x="71.4133" ns1:href="#g1-101" y="74.7198" />
<ns0:use x="79.2259" ns1:href="#g0-107" y="68.4725" />
<ns0:use x="85.7154" ns1:href="#g0-120" y="68.4725" />
</ns0:g>
</ns0:svg>
